X: 41330
T: Turfahun Barndance
R: slide
M: 12/8
K: Gmajor
Bc|d2g e2 d BAB d2 B|A2 D ABc B2 A ABc|
d2 g e2 d BAB d2 B|1 AGA B2 A G2 DG Bc|2 AGA B2 A G2 G g||
f2 d def gfg a2 g|f2 d ded c2 A A2 g|
f2 d de f g fg a2 g|1 fg f e fe d2 A d g|2 fg f e fe d3 d2||

